X: 1
T: Mayim
T: Water
O: Israel
Z: John Chambers <jc:trillian.mit.edu>
M: C|
L: 1/4
K: Dm
|: D/E/ \
|| "Dm"DE F/E/D | FG A>G | "F"FA cB | AG "A7"AA/A/ \
|  "Dm"DE F/E/D | FG A2 | "Bb"dd "F"cc | "Am"Ac "Dm"d2 ||
|| "Dm"dd dd | "Bb"dd dd | "F"zc cc | "Am"Ac "Dm"d2 \
|  "Dm"dd dd | "Bb"dd dd | "F"zc cc | AG A2 || "C7"c2 c2 | c2 c2 ||
|| "F"cc "C7"B/A/G | "F"cc "C7"B/A/G | "F"FG A>A | GF "C7"c2 \
|  "F"cc "C7"B/A/G | "F"cc "C7"B/A/G | "A7"AA "Dm"F/E/D | "A7"FE "Dm"D2 :|
